src/chrome/browser/resources/local_ntp/icons/chrome.svg

<svg xmlns="http://www.w3.org/2000/svg" xmlns:xlink="http://www.w3.org/1999/xlink" width="16" height="16"><defs><path id="a" d="M8 5.3h5.34C12.38 3.32 10.34 2 8 2c-1.86 0-3.54.84-4.62 2.16l1.98 3.42C5.54 6.32 6.68 5.3 8 5.3zm0 5.4c-1.02 0-1.86-.54-2.34-1.38L2.96 4.7C2.36 5.66 2 6.8 2 8c0 3 2.16 5.46 5.04 5.94l1.98-3.42c-.36.12-.66.18-1.02.18zM10.7 8c0-.84-.42-1.62-1.02-2.1h3.96c.24.66.36 1.38.36 2.1 0 3.3-2.7 6-6 6h-.36l2.7-4.68c.24-.36.36-.84.36-1.32zM8 10.1a2.1 2.1 0 1 1 0-4.2 2.1 2.1 0 0 1 0 4.2z"/></defs><use fill="#5F6368" xlink:href="#a" fill-rule="evenodd"/></svg>

<svg xmlns="http://www.w3.org/2000/svg" xmlns:xlink="http://www.w3.org/1999/xlink" width="16" height="16" viewBox="0 0 16 16">
  <defs>
    <path id="chrome_16dp-a" d="M8,5.3 L13.34,5.3 C12.38,3.32 10.34,2 8,2 C6.14,2 4.46,2.84 3.38,4.16 L5.36,7.58 C5.54,6.32 6.68,5.3 8,5.3 L8,5.3 Z M8,10.7 C6.98,10.7 6.14,10.16 5.66,9.32 L2.96,4.7 C2.36,5.66 2,6.8 2,8 C2,11 4.16,13.46 7.04,13.94 L9.02,10.52 C8.66,10.64 8.36,10.7 8,10.7 L8,10.7 Z M10.7,8 C10.7,7.16 10.28,6.38 9.68,5.9 L13.64,5.9 C13.88,6.56 14,7.28 14,8 C14,11.3 11.3,14 8,14 L7.64,14 L10.34,9.32 C10.58,8.96 10.7,8.48 10.7,8 Z M8,10.1 C6.84020203,10.1 5.9,9.15979797 5.9,8 C5.9,6.84020203 6.84020203,5.9 8,5.9 C9.15979797,5.9 10.1,6.84020203 10.1,8 C10.1,9.15979797 9.15979797,10.1 8,10.1 Z"/>
  </defs>
  <g fill="none" fill-rule="evenodd">
    <use fill="#5F6368" xlink:href="#chrome_16dp-a"/>
  </g>
</svg>
